X:1
T:Thy Word Is a Lamp
T:Hubert Platt Main
T:Thy Word Is a Lamp
T:Public Domain
T:Public Domain
C:Hubert Platt Main
Z:Public Domain
%%score ( 1 2 ) ( 3 4 )
L:1/8
M:6/8
K:Eb
V:1 treble 
V:2 treble 
V:3 bass 
V:4 bass 
V:1
 [EG] | [EG]>[DF][EG] [DA]>[DG][DA] | (EG)[Ae] [Ge]2 E | E>E[EG] [EB]>[EA][EG] | %4
w: 1.~Thy|Word is a lamp to my|feet, * O Lord, Thy|a light to my way; It|
w: 2.~Thy|Word is a lamp to my|feet, * O Lord, And,|in Thee as my all, What-|
w: 3.~Thy|Word is a lamp to my|feet, * O Lord, And|Thy glor- y I see, For|
 [DF]3- [DF]2 [EG] | [EG]>[DF][EG] [DA][DG][DA] | (EG)[Ae] [Ge]2 [Gc] | %7
w: my * soul|like a star by night, And|com- * forts and cheers|
w: of * e-|vil may cross my path, I|nev- * er, no, nev-|
w: rich * bless-|ings its truth has brought, The|praises * will I give|
 [Fd]>[Fc][FB] [Ec][DB][E=A] | [DB]3- [DB]2 ||"^Refrain" [EB] | [EB]>[Ec][EB] [F=B]>[F=A][FB] | %11
w: by day. * * * *||||
w: can fall. * * * *||||
w: to Thee. * * * *||||
 [Ec]3- [Ec]2 [^Fe] | [Gd][Gc][GB] [^Fc][FB][F=A] | ([GB-]3 [AB]2) [FA] | %14
w: |||
w: |||
w: |||
 [EG]>[DF][EG] [DA]>[DG][DA] | (EG)[Ae] [Ge]2 [Ec] | [EB]E[EA] [EG]>[FA][DF] | E3- E2 |] %18
w: ||||
w: ||||
w: ||||
V:2
 x | x6 | B2 x2 E x | E>E x4 | x6 | x6 | B2 x4 | x6 | x5 || x | x6 | x6 | x6 | x6 | x6 | B2 x4 | %16
w: ||Word is|shines in|||me||||||||||
w: ||trust- ing|ev- er|||er||||||||||
w: ||oh, when|all the|||un-||||||||||
 x E x4 | E3- E2 |] %18
w: ||
w: ||
w: ||
V:3
 [E,B,] | [E,B,]>[A,B,][G,B,] [F,B,]>[F,B,][F,B,] | (G,B,)[E,C] [E,B,]2 [G,B,] | %3
w: ~|~ ~ ~ ~ ~ ~|~ * ~ ~ ~|
 [A,C]>[A,C][G,B,] [F,C]>[F,C][F,=A,] | B,3- B,2 [E,B,] | [E,B,]>[A,B,][G,B,] [F,B,][F,B,][F,B,] | %6
w: ~ ~ ~ ~ ~ ~|~ * ~|~ ~ ~ ~ ~ ~|
 (G,B,)[_E,C] [E,B,]2 [=E,B,] | [F,B,]>[F,E][F,D] [F,=A,][F,B,][F,C] | [B,,B,]3- [B,,B,]2 || %9
w: ~ * ~ ~ ~|~ ~ ~ ~ O won-|der- *|
 [E,G,] | [E,G,]>[E,A,][E,G,] [D,G,]>[D,G,][D,G,] | [C,G,]3- [C,G,]2 [=A,,C] | %12
w: ful,|won- der- ful Word, My trea-|sure, * my|
 [B,,D][C,E][D,D] [D,=A,][D,B,][D,C] | ([G,D-]3 [F,D]2) [B,,B,] | %14
w: hope, and my stay; Each prom-|ise * re-|
 [E,B,]>[A,B,][G,B,] [F,B,]>[F,B,][F,B,] | (G,B,)[E,C] [E,B,]2 A, | %16
w: cord- ed de- lights my soul,|And * bright- ens each|
 [G,B,][C,C][F,C] [B,,B,]>[B,,B,][B,,A,] | [E,G,]3- [E,G,]2 |] %18
w: my way. * * * *||
V:4
 x | x6 | E,2 x4 | x6 | B,3- B,2 x | x6 | =E,2 x4 | x6 | x5 || x | x6 | x6 | x6 | x6 | x6 | %15
w: ||~||~ *||~|||||||||
 E,2 x2 A, x | x6 | x5 |] %18
w: step of|||

